!!!OTL: 356. Alte Jaegerballade.
!!!ARE: Europa, Mitteleuropa, Deutschland, Oberdiebach am Rhein
!!!SCT: K2356
!!!TXL: @@DE
!!!YEM: Copyright 1995, estate of Helmut Schaffrath.
**kern	**text
*clefG2	*
*M3/4	*
*k[f#]	*
*G:	*
{8dd	Es
=1	=1
8dd	wollt'
8dd	ein
4b	Jä-
4dd	-ger
=2	=2
8cc	früh-
8b	-auf-
4a	-ſteh'n,
8r}	.
{8cc	Drei-
=3	=3
8cc	-vier-
8b	-tel-
4a	-ſtund'
4ee	vor
=4	=4
8dd	Sonn-
8dd	-auf-
4g	-geh'n.
8r}	.
{8dd	Er
=5	=5
8dd	nahm
8dd	ſein
4b	Weibchen
4dd	.
=6	=6
8cc	bei
8b	der
4a	Hand
8r}	.
{8dd	und
=7	=7
8dd	führt'
8dd	ſie
4dd	durch
4dd	ſein
=8	=8
8cc	Va-
8b	-ter-
4a	-land.
8r}	.
{8dd	A-
=9	=9
8dd	-de,
8dd	a-
4b	-de,
4dd	mein
=10	=10
8cc	lie-
8b	-bes
4a	Kind,
8r}	.
{8cc	nun
=11	=11
8cc	muß
8b	ich
4a	heut'
4ee	von
=12	=12
8dd	dir
16ddL	ge-
16f#J	.
4g	-ſchwind!
8r}	.
{8dd	Und
=13	=13
8dd	in
8dd	dem
4b	letʒ,
4dd	ten
=14	=14
8cc	Au-
8b	-gen-
4a	-blick,
8r}	.
{8cc	ver-
=15	=15
8cc	-geß
8b	ich
4a	auch
4ee	das
=16	=16
8dd	Küſ-
16ddL	-ſen
16f#J	.
4g	nicht.
8r}	.
==	==
!!!AGN: Kinder - Lied, Reigen, Tanz - Spiel, Ballade
!!!ONB: ESAC (Essen Associative Code) Database: KINDER
!!!AMT: simple triple
!!!AIN: vox
!!!EED: Helmut Schaffrath
!!!EEV: 1.0
!!!GTL: Zweites Buch. Kinderspiel: 2. Reigen und Tanzspiele. / F. Ringeltaenze ueber alte Balladen- und Maerchenstoffe.
!!@@COMMENT:"Als Kinderſpiel aus Laubenheim (Rahe) und Oberdiebach a. Rh. 1896. Spielweiſe: Die Kinder bilden einen Kreis und die Spieler ſetʒen ſich nieder. Eine geht in den Kreis und eine außerhalb desſelben. 
!!Beide reichen ſich die Hand und ſingen im Gehen obiges Liedchen. Haben ſie es ʒu Ende, ſo ſetʒen ʒwei andre das Spiel fort und ʒwar diejenigen, ʒwiſchen denen die gefaßten Hände 
!!der beiden Scheidenden ſich befanden. Ein altes Jägerlied des 16. Jahrh. beginnt: Es wollt ein Jäger früh aufſtehn dreiviertel Stund vor Tagen rc. (Liederhort I. 347)."
!!@@END:
!!!URL-scan: https://archive.org/details/DeutschesKinderliedUndKinderspiel/page/550/mode/1up
!!!ENC: Anna Maria Matuszewska
!!!EEV: 2024/05/09
*-	*-
